X:1
T:Jamestown, CMD
T:Jamestown, CMD
T:Adam Geibel, 1896
T:Public Domain Courtesy of the Cyber Hymnal™
C:Adam Geibel, 1896
Z:Public Domain
Z:Courtesy of the Cyber Hymnal™
%%score ( 1 2 ) ( 3 4 )
L:1/8
Q:1/4=100
M:4/4
K:A
V:1 treble 
V:2 treble 
V:3 bass 
V:4 bass 
V:1
 ([CA][DB]) | [Ec]2 [Ec]2 [Ec]2 ([Fd][Ec]) | [DB]2 [DB]2 [DB]2 ([B,G][CA]) | %3
 [DB]2 [DB]2 [DB]2 ([Ec][DB]) | [CA]2 [CA]2 [CA]2 ([CA][DB]) | [Ec]2 [Ec]2 [Ec]2 [=Ge]2 | %6
 [Fd]2 [DF]2 [FA]2 [Fd]2 | [Ec]3 [CA] [DB]2 [DB]2 | [CA]6 ([CA][DB]) | [Ec]3 [CA] [Ec]2 [Ed]2 | %10
 e6 ([CA][DB]) | [Ec]3 [CA] [Ec]2 [Ee]2 | B6 ([CA][DB]) | [Ec]2 [Ec]2 [Ec]2 [=Ge]2 | %14
 [Fd]2 [DF]2 [FA]2 [Fd]2 | [Ec]3 [CA] [DB]2 [DB]2 | [CA]6 |] %17
V:2
 x2 | x8 | x8 | x8 | x8 | x8 | x8 | x8 | x8 | x8 | (A2 A2 A2) x2 | x8 | (E2 E2 E2) x2 | x8 | x8 | %15
 x8 | x6 |] %17
V:3
 [A,,E,]2 | [A,,A,]2 [A,,A,]2 [A,,A,]2 [A,,A,]2 | [E,G,]2 [E,G,]2 [E,G,]2 E,2 | %3
 [E,G,]2 [E,G,]2 [E,G,]2 [E,G,]2 | [A,,A,]2 [A,,A,]2 [A,,A,]2 [A,,E,]2 | %5
 [A,,A,]2 [A,,A,]2 [A,,A,]2 [C,A,]2 | [D,A,]2 [D,A,]2 [D,A,]2 [B,,A,]2 | %7
 [E,A,]3 [E,A,] [E,G,]2 [E,G,]2 | [A,,A,]6 [A,,A,]2 | [A,,A,]3 [A,,A,] A,2 [A,B,]2 | %10
 ([A,C]2 [A,C]2 [A,C]2) [A,,A,]2 | [A,,A,]3 [A,,A,] [A,,A,]2 [C,A,]2 | %12
 ([E,G,]2 [E,G,]2 [E,G,]2) [A,,A,]2 | [A,,A,]2 [A,,A,]2 [A,,A,]2 [C,A,]2 | %14
 [D,A,]2 [D,A,]2 [D,A,]2 [B,,A,]2 | [E,A,]3 [E,A,] [E,G,]2 [E,G,]2 | [A,,A,]6 |] %17
V:4
 x2 | x8 | x6 E,2 | x8 | x8 | x8 | x8 | x8 | x8 | x4 A,2 x2 | x8 | x8 | x8 | x8 | x8 | x8 | x6 |] %17

